X:102
T: "Kádár Kata"
L: 1/4
K: F
f/f/g/f/ d/e/ | d d |
f/f/g/f/ d/e/ | c c | 
B/c/d/d/ e/d/ | d c | 
B/c/d/c/ B/A/ | G G | 

